src/icons/brain.svg

<svg width="238" height="238" viewBox="0 0 238 238" fill="none" xmlns="http://www.w3.org/2000/svg">
<path d="M208 129H29C25 157 41.5 170.5 52.5 177C67.1398 216.211 106.117 208.581 119 190C160.5 230 177.5 190.5 185.5 174.5C204.677 165.025 209.434 154.918 208 129Z" fill="#6E44FF"/>
<path d="M72.947 33.2369C81.0626 27.0907 90.9698 23.7757 101.15 23.8002C104.666 23.7213 108.145 24.5306 111.265 26.153C114.385 27.7755 117.045 30.1587 119 33.0822C120.955 30.1587 123.615 27.7755 126.735 26.153C129.855 24.5306 133.334 23.7213 136.85 23.8002C147.03 23.7757 156.938 27.0907 165.053 33.2369C171.301 38.0921 176.12 44.8156 177.822 52.9433C181.725 53.2408 185.295 54.8592 188.294 57.2987C192.84 60.9877 196.148 66.5212 198.23 72.376C201.491 81.4795 202.371 93.082 198.992 102.959C199.849 103.364 200.694 103.84 201.515 104.387C204.787 106.565 207.274 109.682 209.107 113.36C212.713 120.559 214.2 130.603 214.2 142.8C214.2 156.378 209.024 165.493 202.455 171.122C198.822 174.237 194.536 176.494 189.912 177.727C188.722 184.367 185.39 192.054 180.166 198.575C173.383 207.084 162.863 214.2 148.75 214.2C137.564 214.2 128.663 208.012 122.879 201.943C121.497 200.494 120.201 198.964 119 197.362C117.799 198.964 116.503 200.494 115.121 201.943C109.337 208.012 100.448 214.2 89.25 214.2C75.1366 214.2 64.6289 207.084 57.834 198.575C52.9522 192.513 49.6085 185.36 48.0879 177.727C43.4646 176.494 39.1778 174.237 35.5453 171.122C28.9765 165.493 23.8 156.366 23.8 142.8C23.8 130.603 25.2994 120.547 28.8932 113.36C30.7258 109.682 33.2129 106.577 36.4854 104.375C37.2891 103.843 38.1326 103.374 39.0082 102.971C35.6286 93.0701 36.5092 81.4795 39.7698 72.376C41.8523 66.5212 45.1605 60.9877 49.7063 57.2987C52.7051 54.8592 56.2752 53.2527 60.1783 52.9433C61.8919 44.8156 66.7114 38.0921 72.9589 33.2369H72.947ZM113.05 53.5502V53.4312L113.026 52.8362C112.851 49.7339 112.234 46.6725 111.194 43.7446C110.453 41.5343 109.192 39.5344 107.517 37.9136C105.759 36.383 103.478 35.5901 101.15 35.7002C93.6167 35.6743 86.2803 38.1058 80.2536 42.626C74.732 46.9219 71.4 52.741 71.4 59.5002C71.3993 60.4424 71.1748 61.3711 70.745 62.2096C70.3152 63.0482 69.6924 63.7727 68.9278 64.3234C68.1633 64.8742 67.2788 65.2355 66.3473 65.3776C65.4158 65.5197 64.4639 65.4385 63.5698 65.1408C61.3326 64.403 59.3335 64.8195 57.2034 66.5331C54.871 68.4371 52.598 71.8167 50.9677 76.3744C47.6476 85.6802 47.9927 96.9495 52.5504 103.804C53.2014 104.78 53.5491 105.927 53.55 107.1H62.475C69.5762 107.1 76.3865 109.921 81.4078 114.942C86.4291 119.964 89.25 126.774 89.25 133.875V137.862C93.22 139.265 96.5659 142.027 98.6964 145.659C100.827 149.291 101.605 153.559 100.893 157.709C100.181 161.859 98.0247 165.624 94.8053 168.338C91.586 171.052 87.5108 172.541 83.3 172.541C79.0893 172.541 75.0141 171.052 71.7948 168.338C68.5754 165.624 66.4192 161.859 65.7071 157.709C64.9951 153.559 65.7731 149.291 67.9036 145.659C70.0342 142.027 73.3801 139.265 77.35 137.862V133.875C77.35 125.664 70.686 119 62.475 119H41.65C40.9387 118.999 40.2333 118.87 39.5675 118.619L39.5318 118.691C37.1756 123.391 35.7 131.198 35.7 142.8C35.7 153.022 39.4485 158.782 43.2922 162.078C47.4215 165.624 52.003 166.6 53.55 166.6C55.1281 166.6 56.6415 167.227 57.7573 168.343C58.8732 169.459 59.5 170.972 59.5 172.55C59.5 176.929 61.88 184.581 67.116 191.15C72.2211 197.516 79.5634 202.3 89.25 202.3C95.914 202.3 101.888 198.575 106.505 193.732C108.778 191.352 110.551 188.889 111.705 186.866C112.231 185.969 112.681 185.029 113.05 184.057V89.2502H100.139C98.735 93.2201 95.9731 96.566 92.3412 98.6966C88.7092 100.827 84.441 101.605 80.2909 100.893C76.1408 100.181 72.3761 98.0248 69.662 94.8054C66.948 91.5861 65.4594 87.5109 65.4594 83.3002C65.4594 79.0894 66.948 75.0142 69.662 71.7949C72.3761 68.5755 76.1408 66.4193 80.2909 65.7072C84.441 64.9952 88.7092 65.7732 92.3412 67.9038C95.9731 70.0343 98.735 73.3802 100.139 77.3502H113.05V53.5502ZM124.95 172.538V184.046C125.32 185.017 125.769 185.957 126.295 186.854C127.461 188.877 129.222 191.34 131.483 193.72C136.112 198.564 142.098 202.288 148.75 202.288C158.437 202.288 165.779 197.504 170.884 191.138C176.12 184.569 178.5 176.917 178.5 172.538C178.5 170.96 179.127 169.447 180.243 168.331C181.359 167.215 182.872 166.588 184.45 166.588C185.997 166.588 190.579 165.612 194.708 162.066C198.552 158.77 202.3 153.01 202.3 142.788C202.3 131.186 200.813 123.391 198.468 118.679C197.684 116.924 196.453 115.406 194.898 114.276C193.558 113.419 191.989 112.992 190.4 113.05C189.324 113.05 188.268 112.757 187.345 112.204C186.421 111.651 185.666 110.857 185.158 109.909C184.65 108.96 184.408 107.891 184.46 106.816C184.511 105.741 184.853 104.7 185.45 103.804C190.019 96.9495 190.352 85.6802 187.032 76.3744C185.402 71.8167 183.129 68.4252 180.797 66.5331C178.667 64.8195 176.667 64.3911 174.43 65.1408C173.536 65.4385 172.584 65.5197 171.653 65.3776C170.721 65.2355 169.837 64.8742 169.072 64.3234C168.308 63.7727 167.685 63.0482 167.255 62.2096C166.825 61.3711 166.601 60.4424 166.6 59.5002C166.6 52.741 163.268 46.9219 157.735 42.626C151.711 38.1083 144.379 35.6769 136.85 35.7002C134.522 35.5901 132.241 36.383 130.484 37.9136C128.803 39.5325 127.538 41.5327 126.795 43.7446C125.662 46.8529 125.039 50.124 124.95 53.4312V160.65H133.875C142.086 160.65 148.75 153.986 148.75 145.775V123.939C144.78 122.535 141.434 119.773 139.304 116.141C137.173 112.509 136.395 108.241 137.107 104.091C137.819 99.9409 139.975 96.1762 143.195 93.4621C146.414 90.7481 150.489 89.2595 154.7 89.2595C158.911 89.2595 162.986 90.7481 166.205 93.4621C169.425 96.1762 171.581 99.9409 172.293 104.091C173.005 108.241 172.227 112.509 170.096 116.141C167.966 119.773 164.62 122.535 160.65 123.939V145.775C160.65 152.876 157.829 159.687 152.808 164.708C147.787 169.729 140.976 172.55 133.875 172.55H124.95V172.538ZM77.35 83.3002C77.35 84.8782 77.9769 86.3916 79.0928 87.5074C80.2086 88.6233 81.722 89.2502 83.3 89.2502C84.8781 89.2502 86.3915 88.6233 87.5073 87.5074C88.6232 86.3916 89.25 84.8782 89.25 83.3002C89.25 81.7221 88.6232 80.2087 87.5073 79.0929C86.3915 77.977 84.8781 77.3502 83.3 77.3502C81.722 77.3502 80.2086 77.977 79.0928 79.0929C77.9769 80.2087 77.35 81.7221 77.35 83.3002ZM154.7 113.05C156.278 113.05 157.791 112.423 158.907 111.307C160.023 110.192 160.65 108.678 160.65 107.1C160.65 105.522 160.023 104.009 158.907 102.893C157.791 101.777 156.278 101.15 154.7 101.15C153.122 101.15 151.609 101.777 150.493 102.893C149.377 104.009 148.75 105.522 148.75 107.1C148.75 108.678 149.377 110.192 150.493 111.307C151.609 112.423 153.122 113.05 154.7 113.05ZM83.3 148.75C81.722 148.75 80.2086 149.377 79.0928 150.493C77.9769 151.609 77.35 153.122 77.35 154.7C77.35 156.278 77.9769 157.792 79.0928 158.907C80.2086 160.023 81.722 160.65 83.3 160.65C84.8781 160.65 86.3915 160.023 87.5073 158.907C88.6232 157.792 89.25 156.278 89.25 154.7C89.25 153.122 88.6232 151.609 87.5073 150.493C86.3915 149.377 84.8781 148.75 83.3 148.75Z" fill="white"/>
</svg>

<svg width="238" height="238" fill="none" xmlns="http://www.w3.org/2000/svg"><path d="M72.947 33.237A46.529 46.529 0 0 1 101.15 23.8 20.908 20.908 0 0 1 119 33.082a20.912 20.912 0 0 1 17.85-9.282 46.528 46.528 0 0 1 28.203 9.437c6.248 4.855 11.067 11.579 12.769 19.706 3.903.298 7.473 1.916 10.472 4.356 4.546 3.689 7.854 9.222 9.936 15.077 3.261 9.103 4.141 20.706.762 30.583a19.85 19.85 0 0 1 2.523 1.428c3.272 2.178 5.759 5.295 7.592 8.973 3.606 7.199 5.093 17.243 5.093 29.44 0 13.578-5.176 22.693-11.745 28.322a31.892 31.892 0 0 1-12.543 6.605c-1.19 6.64-4.522 14.327-9.746 20.848-6.783 8.509-17.303 15.625-31.416 15.625-11.186 0-20.087-6.188-25.871-12.257a50.722 50.722 0 0 1-3.879-4.581 50.722 50.722 0 0 1-3.879 4.581c-5.784 6.069-14.673 12.257-25.871 12.257-14.113 0-24.621-7.116-31.416-15.625a48.278 48.278 0 0 1-9.746-20.848 31.891 31.891 0 0 1-12.543-6.605C28.976 165.493 23.8 156.366 23.8 142.8c0-12.197 1.5-22.253 5.093-29.44 1.833-3.678 4.32-6.783 7.592-8.985a18.842 18.842 0 0 1 2.523-1.404c-3.38-9.9-2.499-21.492.762-30.595 2.082-5.855 5.39-11.388 9.936-15.077 3-2.44 6.57-4.046 10.472-4.356 1.714-8.127 6.533-14.85 12.78-19.706h-.011ZM113.05 53.55v-.119l-.024-.595a32.657 32.657 0 0 0-1.832-9.091 14.549 14.549 0 0 0-3.677-5.831 9.046 9.046 0 0 0-6.367-2.214 34.629 34.629 0 0 0-20.896 6.926C74.732 46.922 71.4 52.741 71.4 59.5a5.95 5.95 0 0 1-7.83 5.64c-2.237-.737-4.237-.32-6.367 1.393-2.332 1.904-4.605 5.284-6.235 9.841-3.32 9.306-2.975 20.576 1.582 27.43a5.949 5.949 0 0 1 1 3.296h8.925a26.776 26.776 0 0 1 26.775 26.775v3.987a17.847 17.847 0 0 1 11.643 19.847 17.85 17.85 0 1 1-23.543-19.847v-3.987c0-8.211-6.664-14.875-14.875-14.875H41.65a5.927 5.927 0 0 1-2.082-.381l-.036.072c-2.356 4.7-3.832 12.507-3.832 24.109 0 10.222 3.748 15.982 7.592 19.278 4.13 3.546 8.711 4.522 10.258 4.522a5.95 5.95 0 0 1 5.95 5.95c0 4.379 2.38 12.031 7.616 18.6 5.105 6.366 12.447 11.15 22.134 11.15 6.664 0 12.638-3.725 17.255-8.568 2.273-2.38 4.046-4.843 5.2-6.866.526-.897.976-1.837 1.345-2.809V89.25h-12.911a17.853 17.853 0 0 1-19.848 11.643 17.85 17.85 0 1 1 19.848-23.543h12.911v-23.8Zm11.9 118.988v11.508c.37.971.819 1.911 1.345 2.808 1.166 2.023 2.927 4.486 5.188 6.866 4.629 4.844 10.615 8.568 17.267 8.568 9.687 0 17.029-4.784 22.134-11.15 5.236-6.569 7.616-14.221 7.616-18.6a5.95 5.95 0 0 1 5.95-5.95c1.547 0 6.129-.976 10.258-4.522 3.844-3.296 7.592-9.056 7.592-19.278 0-11.602-1.487-19.397-3.832-24.109a10.977 10.977 0 0 0-3.57-4.403 7.818 7.818 0 0 0-4.498-1.226 5.945 5.945 0 0 1-5.242-3.141 5.946 5.946 0 0 1 .292-6.105c4.569-6.855 4.902-18.124 1.582-27.43-1.63-4.557-3.903-7.949-6.235-9.84-2.13-1.715-4.13-2.143-6.367-1.393a5.95 5.95 0 0 1-7.83-5.64c0-6.76-3.332-12.58-8.865-16.875A34.632 34.632 0 0 0 136.85 35.7a9.042 9.042 0 0 0-6.366 2.214 14.509 14.509 0 0 0-3.689 5.83 30.696 30.696 0 0 0-1.845 9.687V160.65h8.925c8.211 0 14.875-6.664 14.875-14.875v-21.836a17.85 17.85 0 1 1 11.9 0v21.836a26.776 26.776 0 0 1-26.775 26.775h-8.925v-.012ZM77.35 83.3a5.95 5.95 0 1 0 11.9 0 5.95 5.95 0 0 0-11.9 0Zm77.35 29.75a5.95 5.95 0 1 0 0-11.899 5.95 5.95 0 0 0 0 11.899Zm-71.4 35.7a5.95 5.95 0 1 0 0 11.899 5.95 5.95 0 0 0 0-11.899Z" fill="#fff"/></svg>
